!!!OTL: Habenichts will freien.
!!!ARE: Europa, Mitteleuropa, Deutschland
!!!SCT: A0236
!!!TXL: @@GMH
!!!YEM: Copyright 1995, estate of Helmut Schaffrath.
**kern	**text
!! Mixed meters:  4/2; 6/2
*M4/2	*
*met(c)	*
*clefC4	*
*k[]	*
*G:mix	*
=1	=1
!LO:TX:a:t=mixolyd.	!
1ryy	.
2ryy	.
{2G	I._Ein
=2	=2
2G	ar-
2A/	-mer
2B	man
2c	wolt
=3	=3
*M6/2	*
1d	wei-
1A}	-ben,
{1c	ʒu
=4	=4
2c	ei-
1B	-ner
2c	fra-
1A	-wen
=5	=5
*M4/2	*
1G	redt:
2r}	.
2G	'Wolt
=6	=6
2G	gern
2A/	mein
2B	kurtʒweil
2c	.
=7	=7
*M6/2	*
1d	trei-
1A}	-ben
{1c	bei
=8	=8
2c	euch
1B	an
2c	ew-
1A	-rem
=9	=9
*M4/2	*
1G	bett.'
2r}	.
{2A	Die
=10	=10
2A	fraw
2G	die
2E	lacht:
2G	"ja
=11	=11
2G	morn
2F	ʒu
2D}	nacht,
{2A/	ich
=12	=12
2F	muß
2G	vor
2A/	von
2F	dir
=13	=13
1E	wiſ-
1D	-ſen,
=14	=14
1r	.
2r}	.
{2d	was
=15	=15
2d	du
2c	ver-
2A	-magſt,
2c	wo
=16	=16
2c	duß
2B	nit
2G}	ſagſt,
{2d	ſo
=17	=17
2B	laß
2c	mich
2d	un-
2B	-be-
=18	=18
1A	-ſchiſſen."
1G/ll}	.
==	==
!!!GTL: Liebeslieder
!!!AGN: Romanze, Ballade, Lied
!! Reutterliedlein 1535 No. 6.
!!!ONB: ESAC (Essen Associative Code) Database: ALTDEU
!!!AMT: irregular
!!!AIN: vox
!!!EED: Helmut Schaffrath
!!!EEV: 1.0
!!!RDF**kern: l = terminal long
!!!AMD: Mixolydian
!!!URL-scan: https://rosdok.uni-rostock.de/mcrviewer/recordIdentifier/rosdok_ppn738218359/iview2/phys_0387.iview2?x=-495.6391625615763&y=2373.9482758860104&scale=0.4629418472063854&rotation=0&layout=singlePageLayout&logicalDiv=log_0010
!!!ENC: Anna Maria Matuszewska
!!!EEV: 2024/08/03
*-	*-
